X:275
T:King of Poland. (p)1687.PLFD1.275, The
M:6/4
L:1/4
Q:3/4=110
S:Playford, Dancing Master,7th Ed,1st Supp,1687.
O:England;London
H:1687.
Z:Chris Partington
K:Gm
B2 G B2 c| dcd G2 A| Bcd  f2 d|1 dcd G3:|2dcdG2|
|: g/a/| b>ag ^f>=ef |g2 G G2 A| B>cd f2 d |
f2d c>BA| B>cd g2 d|1 B>AG G2:|2B>AG G3|]
